X: 2
T:Altan reel from Liz Carroll
R:reel
S:Liz Carroll, Boston 1999 Gaelic Roots
Z:alf.
M:4/4
L:1/8
Q:1/2=112
K:A
ed|cBAc BGED|CEAc e2fg|aece gaec|dcBA GBed|
cBAc BGED|CEAc e2fg|aece gaec|[1 A/2B/2AGB A3d:|[2 A/2B/2AGB Aagf|
|eccB ceag|fddc dfaf|eccB ceaf|ecBA BEGB|
eccB ceag|fddc dfaf|e/2f/2ece dBGB|[1 Aaec Aagf:|[2 Aaec A2ed||
